libs/icons/src/svg/delete-key.svg

<svg width="16" height="16" viewBox="0 0 16 16" fill="none" xmlns="http://www.w3.org/2000/svg">
<path fill-rule="evenodd" clip-rule="evenodd" d="M4.82718 2.89947C4.95384 2.75171 5.13874 2.66666 5.33335 2.66666H15.3334C15.7015 2.66666 16 2.96514 16 3.33333V12.6667C16 13.0349 15.7015 13.3333 15.3334 13.3333H5.33335C5.13874 13.3333 4.95384 13.2483 4.82718 13.1005L0.827183 8.43386C0.613188 8.1842 0.613188 7.8158 0.827183 7.56614L4.82718 2.89947ZM5.63998 4L2.21141 8L5.63998 12H14.6667V4H5.63998Z" fill="#202327"/>
</svg>

<svg xmlns="http://www.w3.org/2000/svg" viewBox="0 0 16 16" class="sageicon"><path fill-rule="evenodd" d="M4.827 2.9a.667.667 0 0 1 .506-.233h10c.368 0 .667.298.667.666v9.334a.667.667 0 0 1-.667.666h-10a.667.667 0 0 1-.506-.232l-4-4.667a.667.667 0 0 1 0-.868l4-4.667ZM5.64 4 2.211 8l3.429 4h9.027V4H5.64Z"/></svg>
